epam-assets/icon-sources/18/action-snapshot.svg

<svg width="18" height="18" viewBox="0 0 18 18" fill="none" xmlns="http://www.w3.org/2000/svg">
<g id="18/action-snapshot">
<path id="icon" d="M3.75 15.75C3.3375 15.75 2.98425 15.6033 2.69025 15.3097C2.39675 15.0157 2.25 14.6625 2.25 14.25V11.25H3.75V14.25H6.75V15.75H3.75ZM11.25 15.75V14.25H14.25V11.25H15.75V14.25C15.75 14.6625 15.6033 15.0157 15.3097 15.3097C15.0157 15.6033 14.6625 15.75 14.25 15.75H11.25ZM9 11.25C8.375 11.25 7.84375 11.0312 7.40625 10.5938C6.96875 10.1562 6.75 9.625 6.75 9C6.75 8.375 6.96875 7.84375 7.40625 7.40625C7.84375 6.96875 8.375 6.75 9 6.75C9.625 6.75 10.1562 6.96875 10.5938 7.40625C11.0312 7.84375 11.25 8.375 11.25 9C11.25 9.625 11.0312 10.1562 10.5938 10.5938C10.1562 11.0312 9.625 11.25 9 11.25ZM2.25 6.75V3.75C2.25 3.3375 2.39675 2.98425 2.69025 2.69025C2.98425 2.39675 3.3375 2.25 3.75 2.25H6.75V3.75H3.75V6.75H2.25ZM14.25 6.75V3.75H11.25V2.25H14.25C14.6625 2.25 15.0157 2.39675 15.3097 2.69025C15.6033 2.98425 15.75 3.3375 15.75 3.75V6.75H14.25Z" fill="#6C6F80"/>
</g>
</svg>

<svg xmlns="http://www.w3.org/2000/svg" width="18" height="18" fill="none" viewBox="0 0 18 18">
  <path fill="#6C6F80" d="M3.75 15.75c-.413 0-.766-.147-1.06-.44a1.446 1.446 0 0 1-.44-1.06v-3h1.5v3h3v1.5h-3Zm7.5 0v-1.5h3v-3h1.5v3c0 .412-.147.766-.44 1.06a1.45 1.45 0 0 1-1.06.44h-3ZM9 11.25a2.17 2.17 0 0 1-1.594-.656A2.17 2.17 0 0 1 6.75 9c0-.625.219-1.156.656-1.594A2.17 2.17 0 0 1 9 6.75a2.17 2.17 0 0 1 1.594.656c.437.438.656.969.656 1.594a2.17 2.17 0 0 1-.656 1.594A2.17 2.17 0 0 1 9 11.25Zm-6.75-4.5v-3c0-.413.147-.766.44-1.06.294-.293.647-.44 1.06-.44h3v1.5h-3v3h-1.5Zm12 0v-3h-3v-1.5h3c.412 0 .766.147 1.06.44.293.294.44.647.44 1.06v3h-1.5Z"/>
</svg>
